!!!ONB: MCCC : IGF0063_02 : Extracted Monophonic Melody
!!!COM: Fauré, Gabriel
!!!OPR: Trois Nocturnes
!!!OMV: 2
!!!SCT: Op.33
!!!ODT: 1875///
**kern
*staff1
=1
*clefG2
*k[f#c#g#d#a#]
*B:
*M4/4
8dd#
16dd#
16dd#[
8dd#]
16ee
16dd#
8dd#
8b[
8b]
16dd#
16cc#
=2
4cc#
8cc#
8g#
2r
=3
4dd#[
4dd#]
4b[
8b]
16dd#
16cc#
=4
4cc#
8cc#
8g#
2r
=5
4cc#
8cc#
16dd#
16ee
4ee
8ee
16ff#
16gg#
=6
16e
16gg#
8dd#
8dd#
16cc#
16dd#
2dd#
=7
16f#
8.cc#
8cc#
16dd#
16ee
4ee
8ee
16ff#
16gg#
=8
16e
16gg#
8dd#
8dd#
16cc#
16dd#
4.dd#
16ee
16dd#
=9
4dd#
8r
16ee#
16dd#
4.dd#
16ee
16dd#
=10
4.dd#
8dd#
4r
8r
8f#
=11
8r
16e
16d#
8d#
8f#
4f#
24f#
24a#
24cc#
24dd#
24ee
24ff#
=12
*M5/4
24aa#
24ccc#
24ddd#
24eee
24fff#
24aaa#
8cccc#
8ffff#
4ffff#
4ffff#
4r
=13
*M4/4
2r
4r
8r
8f#
=14
24r
24d
24e
24b
24e
24d
24r
24A#
24d
24e
24d
24A#
8r
8f#
8r
8d
=15
4r
8r
8e
24r
24A#
24c#
24d
24c#
24A#
24r
24A
24d
8a
=16
24r
24d
24f##
24dd
24f##
24d
24r
24B
24f##
24b
24f##
24B
24r
24B
24e#
24a#
24e#
24B
8r
8f#
=17
1r
=18
24r
24d
24e
24b
24e
24d
24r
24A#
24d
24r
24d
24A#
8r
24r
24c#
24F##
4r
=19
2r
24r
24A#
24c#
24d
24c#
24A#
24r
24A
24d
8a
=20
24r
24d
24f##
24dd
24f##
24d
24r
24B
24f##
24b
24f##
24B
24r
24B
24e#
24a#
24e#
24B
8r
8f#
=21
4r
24f#
24a#
24cc#
24dd
24cc#
24a#
4r
24fff#
24aaa#
24cccc#
24dddd
24cccc#
24aaa#
=22
8.fff#
16dd
24cc#
24a#
24f#
8r
2r
=23
2r
8r
24r
24c#
24d
24e
24f#
24g#
24a#
24b
24cc#
=24
8dd[
8dd]
12cc#
12ee
12aa
8ff##[
8ff##]
12ff#
12bb
12ddd
=25
8ccc#
8bb
16ee
16ff##
16bb#
16aa#
8.ff#[
16ff#]
8dd
24A
24d
24f#
=26
8ff#[
8ff#]
12ee
12ff##
12bb#
8aa#[
8aa#]
12aa
12ddd
12fff#
=27
16eee
16ddd
16ccc#
16ddd
36ccc#
36bb
36aa
36ff##
36ff#
36ee
36dd
36cc#
36b
8a#[
8a#]
8f#
8A#
=28
8f##[
8f##]
12f#
12b
12ff#
8ee#[
8ee#]
16ff#
16dd
16a
16f#
=29
8f##[
8f##]
16f#
16b
24dd
24bb
24ff##
8ee#[
8ee#]
8ff#
8c#
=30
8ff##[
8ff##]
12dd#
12ee
12aa
8ff##[
16ff##]
16ff#
16dd
16dd#
16ff#
16ee
=31
8dd[
8dd]
12a#
12b
12ee
8dd[
16dd]
16cc#
16a
16a#
16cc#
16b
=32
4a
16e
16e#
16f#
16b
32g#
32a
32b
32cc#
32dd
32ee
32ff#
32gg#
32aa
32bb
32ccc#
32ddd
32eee
32fff#
32fff##
32ggg##
=33
8aaa#
32aaa#
32aaa#
16fff#
24aa#
24ff#
24dd
24a#
24f#
24d
8aa#
32aa#
32aa#
16aa#
32aa#
32aa#[
16aa#]
24ff##
24aa
24ccc#
=34
24r
24F#
24A
24r
24A
24F#
24r
24F##
24B
8r
24r
24A#
24c#
24r
24c#
24A#
24r
24A
24d
8r
=35
8r
8a
8r
8f#
8r
8a
8r
8g#
=36
24r
24A
24c#
24r
24c#
24A
24r
24B
24d
8r
24r
24d
24e#
24r
24e#
24d
24r
24c#
24f#
8r
=37
24r
24A
24f#
24cc#
24f#
24A
8r
8a
8r
8b
4r
=38
8ff#[
8ff#]
12ee
12ff##
12bb#
8aa#[
8aa#]
16gg##
16ff##
16cc#
16dd
=39
2ff#
4ee#
4r
=40
1r
=41
8.aa
16ff#
16ff##
16aa
16bb#
16aa#
16ddd
16ccc#
16eee
16ddd
12aa
12ff#
12ff##
=42
16aa
16aa
8aa[
8aa]
8ff##
16a#
16ff#
16ee#
16ff##
12ff#
12dd
12a#
=43
12a#[
12a#]
12b
16cc#
8.dd
16a#
16a#[
16a#]
16b
12cc#
12dd
12e#
=44
1r
=45
2r
4r
8r
8B#
=46
8r
8d##
8r
8e#
8r
8f##
8r
24b#
24d
24g#
=47
24g#
24c#
24d
24a
24c#
24e
24a#
24e
24f#
24dd
24e
24a#
24a#
24d#
24f#
24b
24d#
24f#
24b#
24f#
24g#
24ee
24f#
24b
=48
24b#
24e#
24g#
24cc#
24e#
24g#
24ee
24b
24cc#
24ee#
24b
24cc#
24ee
24b
24dd
24ee#
24b
24dd
24ff##
24b
24dd
24gg#
24b
24dd
=49
24ff##
24b
24dd
24gg#
24b
24dd
24aa#
24dd
24ff##
24bb
24dd
24ff##
24aa#
24dd
24ff##
24bb
24dd
24ff##
24ccc#
24ff##
24bb
24ddd
24ff##
24bb
=50
8dd[
8dd]
24cc#[
24cc#]
24ee[
8ee]
2r
=51
1r
=52
8r
8ff#
8r
24B
24d#
24a
8r
24B
24e
24a
12a
12a#
12b
=53
8dd
8cc#
4r
2r
=54
2.c#
4d
=55
4d#
4r
2r
=56
2.cc#
8r
24d
24e#
24b
=57
8r
24c#
24e#
24g#
8r
24c#
24e
24a#
8r
24c#
24e
24b
4dd[
=58
4dd]
4r
8r
8dd
8cc#
24b
24b[
24b]
=59
12a
12dd#
12bb
8aa
8ff##
8ff#
8ee
12dd
12gg#
12eee
=60
8ddd
8ccc#
8bb
8aa#
12ff##
12gg#
12eee
8ddd
8ccc#
=61
8bb
8aa#
12ff##
12gg#
12eee
8ddd
8ccc#
8bb
8aa#
=62
12ff##
12gg#
12eee
8ddd
8ccc#
8bb
8aa#
8ff#
8ff##
=63
24ee#
24bb
24eee
24ddd
24bb
24ee#
24eee
24ddd
24bb
24ee#
24ccc#
24bb
24ee#
24bb
24eee
24ddd
24bb
24ee#
24eee
24ddd
24bb
24ee#
24ccc#
24bb
=64
24ee
24aa#
24ddd
24ccc#
24aa#
24ee
24ddd
24ccc#
24aa#
24ee
24bb
24aa#
24ee
24aa#
24ddd
24ccc#
24aa#
24ee
24ddd
24ccc#
24aa#
24ee
24bb
24aa#
=65
24dd
24gg#
24ccc#
24bb
24gg#
24dd
24ccc#
24bb
24gg#
24dd
24aa#
24gg#
24dd
24gg#
24ccc#
24bb
24gg#
24dd
24ccc#
24bb
24gg#
24dd
24aa#
24gg#
=66
24b
24dd
24ff#
24ee#
24dd
24b
24ff#
24ee#
24dd
24b
24ee
24dd
24e#
24b
24ee
24dd
24b
24e#
24ee
24dd
24cc#
24e#
24cc#
24b
=67
24B
24d
24f#
8a#
4g#
8r
8a#
4g#
=68
8r
8g#
4f#
4r
8r
32c#
32f#
32a#
32cc#
=69
32ff#
32cc#
32a#
32f#
8r
16r
32f#
32a#
32cc#
32ff#
32aa#
32ccc#
32fff#
32ccc#
32aa#
32ff#
8r
16r
32ff#
32aa#
32ccc#
32fff#
32aaa#
32cccc#
=70
4ffff#
4r
2r
=71
2r
4r
24ff#
24gg#
24ff#
32gg#
32ff#
32gg#
32ff#
=72
32gg#
32ff#
32gg#
32ff#
32gg#
32ff#
32gg#
32ff#
32gg#
32ff#
32gg#
32ff#
32gg#
32ff#
32gg#
32ff#
32gg#
32ff#
32gg#
32ff#
32gg#
32ff#
32gg#
32ff#
32gg#
32ff#
32gg#
32ff#
32gg#
32ff#
32gg#
32ff#
=73
32dd#
32ff#
32gg#
32ff#
32dd#
32ff#
32gg#
32ff#
32gg#
32ff#
32ee#
32ff#
16ee
16dd#
8dd#
8aa#
8b
16bb[
16bb]
=74
8ddd#
8ddd#
8eee[
16eee]
16ddd#
8.ddd#
16bb[
8bb]
16ddd#
16ccc#
=75
8ccc#
16ccc#
16ccc#[
8ccc#]
16gg#
16gg#
8ff#
16ff#
16ff#[
8ff#]
8b
=76
8ddd#
16ddd#
16ddd#
16ddd#
16eee
16eee
16ddd#
8.ddd#
16bb[
8bb]
16ddd#
16ccc#
=77
8ccc#
16ccc#
16ccc#[
8ccc#]
16gg#
16gg#
4ff#[
4ff#]
=78
4cc#
8cc#
16dd#
16ee
4ee
8ee
16ff#
16gg#
=79
16e
16gg#
8dd#
8dd#
16cc#
16dd#
2dd#
=80
16f#
8.cc#
8cc#
16dd#
16ee
4ee
8ee
16ff#
16gg#
=81
16e
16gg#
8dd#
8dd#
16cc#
16dd#
4.dd#
16ee
16dd#
=82
4dd#
8r
16ee#
16dd#
4.dd#
16ee
16dd#
=83
4.dd#
8dd#
4r
8r
8f#
=84
8r
16e
16d#
8d#
8f#
4f#
4r
=85
4r
8r
8ffff#
8f##[
24f##]
24e
24f#
24f##
24a
24b
24dd
24ee
24ff#
=86
24ff##
24aa
24bb
24ddd
24eee
24fff#
8fff##
8aa#
8bb
8ddd#
8bb
8ddd#
=87
*M2/4
4b
4dd#
=88
*M4/4
4r
32r
32B
32d#
32f#
32g#
32f#
32d#
32B
32dd#
32b
32dd#
32ff#
32gg#
32ff#
32dd#
32b
32ddd#
32bb
32ddd#
32fff#
32ggg#
32fff#
32ddd#
32bb
=89
32dddd#
32bb
32ddd#
32fff#
32ggg#
32fff#
32ddd#
32bb
32ff#
32bb
32ddd#
32fff#
32ggg#
32fff#
32ddd#
32bb
32dddd#
32bb
32ddd#
32fff#
32ggg#
32fff#
32ddd#
32bb
32ff#
32bb
32ddd#
32fff#
32ggg#
32fff#
32ddd#
32bb
=90
32dddd#
32bb
32ddd#
32fff#
32ggg#
32fff#
32ddd#
32bb
32ff#
32bb
32ddd#
32fff#
32ggg#
32fff#
32ddd#
32bb
32dddd#
32bb
32ddd#
32fff#
32ggg#
32fff#
32ddd#
32bb
32ff#
32bb
32ddd#
32fff#
32ggg#
32fff#
32ddd#
32bb
=91
4dddd#
16bb
8.ddd#
4b
4r
==
*-
